packages/katcn/src/icons/svg/feather-solid.svg

<svg xmlns="http://www.w3.org/2000/svg" fill="none" viewBox="0 0 24 24"><path fill="#000" d="M21.2 2.8c-2.4-2.4-6.4-2.4-8.8 0L6.1 9.1c-1 1-1.6 2.4-1.6 3.9v5.1l-3.2 3.2c-.4.4-.4 1.1 0 1.5.2.1.5.2.7.2s.5-.1.7-.3l9.5-9.2c.4-.4 1.1-.4 1.5 0s.4 1.1 0 1.5l-2.5 2.5-1 1-1 1H11c1.4 0 2.9-.6 3.9-1.6l6.3-6.3c1.2-1.1 1.8-2.7 1.8-4.4s-.6-3.2-1.8-4.4"/></svg>

<svg width="24" height="24" viewBox="0 0 24 24" fill="none" xmlns="http://www.w3.org/2000/svg">
<path d="M21.2 2.8C18.8 0.4 14.8 0.4 12.4 2.8L6.1 9.1C5.1 10.1 4.5 11.5 4.5 13V18.1L1.3 21.3C0.9 21.7 0.9 22.4 1.3 22.8C1.5 22.9 1.8 23 2 23C2.2 23 2.5 22.9 2.7 22.7L12.2 13.5C12.6 13.1 13.3 13.1 13.7 13.5C14.1 13.9 14.1 14.6 13.7 15L11.2 17.5L10.2 18.5L9.2 19.5H11C12.4 19.5 13.9 18.9 14.9 17.9L21.2 11.6C22.4 10.5 23 8.9 23 7.2C23 5.5 22.4 4 21.2 2.8Z" fill="black"/>
</svg>
